X:7423
T:The Trip to Durrow
O:england
M:C|
L:1/8
Q:230
R:Reel
K:D
D2 FD ADFA | defd B~B2 c | dB{d}BA dB{d}BA | FADE FEEF |
D2 FD ADFA | defd B~B2 c | dB{d}BA FAdB | AFEG FDD2 :||:
{e}dcde {a}fefg | afdf gfed | (3Bcd ef {a}gebe | {a}gebe  {a}gfef |
{e}dcde {a}fefg | afdf gfed | (3Bcd ef gbag |1 fgec d~d2 A :|2 fdec d~d2
e
|:   fdec {e}dcde | fded  B~B2 c | dB{d}BA dB{d}BA | FADE FEEe |
fdec {e}dcde | fded  B~B2 c | dB{d}BA  FAdB | AFEG FDD2 |
fdec {e}dcde | fded  B~B2 c | dB{d}BA dB{d}BA | FADE FEEF |
D2 FD ADFA | defd B~B2 c | dB{d}BA FAdB | AFEG FDD2 ||


